Adwaita++-Dark/actions/16/media-repeat-album-amarok.svg

<svg height="16" viewBox="0 0 16 16" width="16" xmlns="http://www.w3.org/2000/svg">
  <path d="m5 2v2h-2.0683594c-1.0697 0-1.9316406.9390688-1.9316406 2.1054688v5.7890622c0 1.166.8619406 2.105469 1.9316406 2.105469h10.1367184c1.07 0 1.931641-.939469 1.931641-2.105469v-5.7890622c0-1.1664-.861641-2.1054688-1.931641-2.1054688h-2.068359v2h1.998047c-.002.009.001953.0262687.001953.1054688v5.7890622c0 .079-.003953.096469-.001953.105469h-9.9941408c.0010001-.009-.0039062-.026469-.0039062-.105469v-5.7890622c0-.0792.0049062-.0965688.0039062-.1054688h1.9960938v2l4-3zm4 5v1 1 1 1h1v-1h1v1h1v-1-1-1-1h-1zm1 1h1v1h-1z" fill="#e6ddff"/>
</svg>

<svg xmlns="http://www.w3.org/2000/svg" width="16" height="16" viewBox="0 0 16 16">
 <defs>
  <style id="current-color-scheme" type="text/css">
   .ColorScheme-Text { color:#E6DDFF; } .ColorScheme-Highlight { color:#4285f4; }
  </style>
 </defs>
 <path style="fill:currentColor" class="ColorScheme-Text" d="M 5 2 L 5 4 L 2.9316406 4 C 1.8619406 4 1 4.9390688 1 6.1054688 L 1 11.894531 C 1 13.060531 1.8619406 14 2.9316406 14 L 13.068359 14 C 14.138359 14 15 13.060531 15 11.894531 L 15 6.1054688 C 15 4.9390688 14.138359 4 13.068359 4 L 11 4 L 11 6 L 12.998047 6 C 12.996047 6.009 13 6.0262687 13 6.1054688 L 13 11.894531 C 13 11.973531 12.996047 11.991 12.998047 12 L 3.0039062 12 C 3.0049063 11.991 3 11.973531 3 11.894531 L 3 6.1054688 C 3 6.0262688 3.0049062 6.0089 3.0039062 6 L 5 6 L 5 8 L 9 5 L 5 2 z M 9 7 L 9 8 L 9 9 L 9 10 L 9 11 L 10 11 L 10 10 L 11 10 L 11 11 L 12 11 L 12 10 L 12 9 L 12 8 L 12 7 L 11 7 L 9 7 z M 10 8 L 11 8 L 11 9 L 10 9 L 10 8 z"/>
</svg>
